img/svg/16/device/nintendo.svg

<svg xmlns="http://www.w3.org/2000/svg" viewBox="0 0 16 16" enable-background="new 0 0 16 16"><path d="M12.432 0h-9.899c-.294 0-.533.239-.533.533v14.934c0 .294.239.533.533.533h9.899c.294 0 .533-.239.533-.533v-14.934c0-.294-.239-.533-.533-.533zm-6.589 12.776h-1.067v1.066c0 .148-.119.269-.266.269-.147 0-.267-.12-.267-.269v-1.066h-1.067c-.147 0-.266-.119-.266-.267 0-.147.119-.266.266-.266h1.067v-1.067c0-.147.12-.267.267-.267.147 0 .266.12.266.267v1.067h1.067c.148 0 .267.119.267.266 0 .148-.119.267-.267.267zm2.557 1.357c-.441 0-.8-.358-.8-.8 0-.442.359-.8.8-.8.442 0 .8.358.8.8 0 .442-.358.8-.8.8zm0-2.133c-.441 0-.8-.359-.8-.8 0-.442.359-.8.8-.8.442 0 .8.358.8.8 0 .441-.358.8-.8.8zm2.399 2.667c-.441 0-.8-.359-.8-.8 0-.442.359-.8.8-.8.442 0 .8.358.8.8 0 .441-.358.8-.8.8zm0-2.134c-.441 0-.8-.358-.8-.8 0-.442.359-.8.8-.8.442 0 .8.358.8.8 0 .442-.358.8-.8.8zm1.099-3.467c0 .294-.238.533-.533.533h-7.765c-.294 0-.533-.239-.533-.533v-7.466c0-.295.239-.533.533-.533h7.765c.295 0 .533.238.533.533v7.466z" fill-rule="evenodd" clip-rule="evenodd" fill="#ccc"/></svg>

<svg xmlns="http://www.w3.org/2000/svg" viewBox="0 0 16 16"><path fill="#ccc" fill-rule="evenodd" d="M12.432 0H2.533A.533.533 0 0 0 2 .533v14.934c0 .294.239.533.533.533h9.899a.533.533 0 0 0 .533-.533V.533A.533.533 0 0 0 12.432 0zM5.843 12.776H4.776v1.066a.268.268 0 0 1-.266.269.268.268 0 0 1-.267-.269v-1.066H3.176a.266.266 0 0 1 0-.533h1.067v-1.067a.267.267 0 1 1 .533 0v1.067h1.067a.266.266 0 1 1 0 .533zM8.4 14.133a.8.8 0 1 1 0-1.6.8.8 0 0 1 0 1.6zM8.4 12a.801.801 0 1 1 .002-1.602A.801.801 0 0 1 8.4 12zm2.399 2.667a.801.801 0 1 1 .002-1.602.801.801 0 0 1-.002 1.602zm0-2.134a.8.8 0 1 1 0-1.6.8.8 0 0 1 0 1.6zm1.099-3.467a.533.533 0 0 1-.533.533H3.6a.533.533 0 0 1-.533-.533V1.6c0-.295.239-.533.533-.533h7.765c.295 0 .533.238.533.533v7.466z" clip-rule="evenodd"/></svg>
